resources/about-logo.svg

<svg xmlns="http://www.w3.org/2000/svg" width="64" height="64" viewBox="0 0 16 16"><title>icon/social/firefox/white</title><g id="icon/social/firefox/white" fill="none" fill-rule="evenodd" stroke="#000" stroke-width=".1"><path id="icon" fill="#F4f4f7" fill-rule="nonzero" d="M15.9522801,7.315 C15.9522801,7.17 15.9058329,7.085 15.9058329,7.085 C15.9058329,7.085 15.8490642,7.15 15.7510091,7.275 C15.7199704,6.93658917 15.6560372,6.60177144 15.5600596,6.275 C15.4377287,5.85786861 15.2753135,5.4527637 15.0749449,5.065 C14.9486681,4.80830843 14.8001955,4.56243106 14.6311165,4.33 L14.4504887,4.05 C14.1563234,3.585 13.8157109,3.3 13.4183297,2.76 C13.162244,2.34629977 12.9872792,1.89030878 12.9022502,1.415 C12.7943954,1.70109735 12.7115315,1.99546517 12.654532,2.295 C12.25199,1.9 11.9010559,1.62 11.6894633,1.43 C10.6573043,0.5 10.7760026,0 10.7760026,0 C10.7760026,0 8.83038285,2.105 9.67159245,4.3 C9.96321942,5.04339784 10.4659736,5.69169536 11.1217759,6.17 C11.9371815,6.82 12.8145167,7.335 13.2789882,8.67 C12.9076823,7.97787856 12.3447717,7.39961113 11.6533378,7 C11.8605737,7.47445362 11.9659296,7.98482007 11.9629855,8.5 C11.9695484,9.59108778 11.4607444,10.6251774 10.5817263,11.3072613 C9.70270822,11.9893452 8.55000059,12.2445241 7.45245056,12 C7.13478162,11.9426175 6.82719283,11.8415987 6.53898983,11.7 C6.10774366,11.4424135 5.73542064,11.1021092 5.44490127,10.7 L5.51199161,10.7 C5.66371898,10.75 5.81905892,10.791 5.97646317,10.82 C6.60109397,10.9488129 7.25211491,10.8750219 7.8291886,10.61 C8.41235845,10.295 8.76329251,10.065 9.05229704,10.155 C9.33097997,10.24 9.56837654,9.98 9.35162315,9.705 C9.00184757,9.27183589 8.43544499,9.05885749 7.87563576,9.15 C7.29246591,9.23 6.75574322,9.65 5.99194555,9.245 L5.84744329,9.165 C5.79583534,9.135 6.01258873,9.21 5.96098078,9.165 C5.79409085,9.08325659 5.63366875,8.98966805 5.48102684,8.885 C5.48102684,8.885 5.59456433,8.92 5.58424274,8.91 C5.37969939,8.77813428 5.20426962,8.60817038 5.06816323,8.41 C4.9304186,8.1699071 4.91704164,7.88108048 5.03203767,7.63 C5.10272874,7.50654598 5.21080584,7.40707174 5.34168537,7.345 L5.50167002,7.43 L5.43457968,7.31 C5.5223132,7.345 5.71326262,7.44 5.81131772,7.5 C5.88088986,7.53632374 5.94092196,7.58764287 5.98678476,7.65 C5.98678476,7.65 6.02291032,7.65 5.98678476,7.565 C5.95021559,7.47871747 5.88715982,7.40540811 5.80615693,7.355 C5.88393299,7.39384358 5.9581702,7.43900528 6.02807112,7.49 C6.11675945,7.35732216 6.17322494,7.20688014 6.19321656,7.05 C6.19993209,6.96511751 6.18760819,6.87983232 6.15709099,6.8 C6.13128702,6.75 6.15709099,6.73 6.21902053,6.8 C6.21055732,6.75846794 6.19668422,6.71814536 6.17773417,6.68 L6.21902053,6.635 C6.25368723,6.60142114 6.29172092,6.57127223 6.33255803,6.545 C6.574341,6.39996312 6.82808377,6.27453614 7.0911949,6.17 L7.5195409,5.99 C7.57269709,5.955 7.6227568,5.917 7.66920395,5.875 C7.84591942,5.72771544 7.96597182,5.52681303 8.00981643,5.305 C8.01157056,5.27502407 8.01157056,5.24497593 8.00981643,5.215 C7.97885166,5.1 7.77758065,5.02 6.72993925,4.92 C6.36092101,4.86197475 6.06500645,4.59307486 5.98162396,4.24 L5.9403376,4.355 L5.98162396,4.24 C6.18268427,3.73320205 6.54394548,3.30094541 7.01378298,3.005 L6.93121026,3.005 C7.02010507,2.96176653 7.11142112,2.92337349 7.2047324,2.89 C7.25117955,2.89 7.00346139,2.78 6.7815472,2.8 C6.64631304,2.80709588 6.5134801,2.8375761 6.38932677,2.89 C6.44093472,2.845 6.59575858,2.79 6.55963301,2.79 C6.27933439,2.81562962 6.00545554,2.88661379 5.74938818,3 C5.74387878,2.97697193 5.74387878,2.95302807 5.74938818,2.93 C5.54631381,3.00884954 5.36829935,3.13820058 5.23330867,3.305 C5.23523773,3.27669749 5.23523773,3.24830251 5.23330867,3.22 C5.14394273,3.28588166 5.06257105,3.3613633 4.9907513,3.445 C4.41080795,3.22720305 3.77855249,3.17514445 3.16899064,3.295 C3.04227115,3.19564434 2.93254276,3.07752259 2.84386055,2.945 C2.80257419,2.89 2.76128783,2.825 2.72000147,2.75 L2.62710716,2.58 C2.62710716,2.58 2.62710716,2.635 2.59614239,2.62 C2.49023847,2.3505025 2.44110523,2.06318807 2.45164012,1.775 C2.27901769,1.88906308 2.14876422,2.05381786 2.08006288,2.245 C2.04909811,2.315 2.02845493,2.35 2.00781175,2.39 C1.98716857,2.43 2.00781175,2.285 2.00781175,2.29 C1.95678239,2.34604199 1.91341876,2.40822056 1.87879187,2.475 C1.84739134,2.53605655 1.82149116,2.59962599 1.80137994,2.665 L1.80137994,2.58 C1.57827179,3.05447478 1.43705344,3.5612096 1.38335554,4.08 C1.37497805,4.16981701 1.37497805,4.26018299 1.38335554,4.35 C1.22306983,4.51868408 1.08125123,4.70300109 0.960170344,4.9 C0.55415146,5.56325343 0.251555062,6.28101053 0.062191999,7.03 C0.188202936,6.74576328 0.340191301,6.47301082 0.516341966,6.215 C0.167336667,7.09380412 -0.0077403116,8.02842188 0.000262458017,8.97 C0.0609662399,8.69412178 0.138514473,8.42197676 0.232498237,8.155 C0.174089224,9.27125427 0.395424076,10.3846201 0.877597622,11.4 C1.52789014,12.8087525 2.60869113,13.9902601 3.97407467,14.785 C4.52673369,15.1479813 5.13199507,15.4293874 5.77003136,15.62 L6.02807112,15.705 L5.95065919,15.67 C6.69925008,15.8868489 7.47620203,15.9979924 8.25753459,16 C11.0495247,16 11.9733071,14.97 12.0558798,14.865 C12.1941259,14.7441347 12.3063708,14.5980051 12.3861707,14.435 L12.5513161,14.365 L12.5874417,14.365 L12.6493712,14.335 C13.0694725,14.1427228 13.4644692,13.9027025 13.8260325,13.62 C14.369747,13.2429931 14.7589536,12.6924209 14.9252818,12.065 C15.0192536,11.8353614 15.0192536,11.5796386 14.9252818,11.35 L15.0130154,11.21 C15.613893,10.2734691 15.9535409,9.20185263 15.9987272,8.1 L15.9987272,8.01 C16.0047801,7.77745277 15.9892351,7.5448493 15.9522801,7.315 Z"/></g></svg>

<svg width="64" height="64" viewBox="0 0 16 16">
  <path fill="#F4f4f7" stroke="#000" stroke-width=".1" d="M15.952 7.315c0-.145-.046-.23-.046-.23s-.057.065-.155.19a5.25 5.25 0 0 0-.19-1 6.811 6.811 0 0 0-.486-1.21 5.006 5.006 0 0 0-.444-.735l-.18-.28c-.295-.465-.635-.75-1.033-1.29a3.84 3.84 0 0 1-.516-1.345c-.108.286-.19.58-.247.88-.403-.395-.754-.675-.966-.865C10.657.5 10.776 0 10.776 0S8.83 2.105 9.672 4.3a4.23 4.23 0 0 0 1.45 1.87c.815.65 1.693 1.165 2.157 2.5A4.258 4.258 0 0 0 11.653 7c.208.474.313.985.31 1.5a3.529 3.529 0 0 1-1.381 2.807 3.775 3.775 0 0 1-3.13.693 3.47 3.47 0 0 1-.913-.3 3.67 3.67 0 0 1-1.094-1h.067c.152.05.307.091.464.12a2.996 2.996 0 0 0 1.853-.21c.583-.315.934-.545 1.223-.455.279.085.516-.175.3-.45a1.574 1.574 0 0 0-1.476-.555c-.584.08-1.12.5-1.884.095l-.145-.08c-.051-.03.166.045.114 0a3.82 3.82 0 0 1-.48-.28s.114.035.103.025a1.825 1.825 0 0 1-.516-.5.85.85 0 0 1-.036-.78.703.703 0 0 1 .31-.285l.16.085-.067-.12c.087.035.278.13.376.19a.51.51 0 0 1 .176.15s.036 0 0-.085a.459.459 0 0 0-.18-.21c.077.039.151.084.221.135.089-.133.145-.283.165-.44a.573.573 0 0 0-.036-.25c-.026-.05 0-.07.062 0a.49.49 0 0 0-.041-.12l.041-.045a.734.734 0 0 1 .114-.09c.241-.145.495-.27.758-.375l.429-.18c.053-.035.103-.073.15-.115a.994.994 0 0 0 .34-.57.77.77 0 0 0 0-.09c-.031-.115-.232-.195-1.28-.295a.907.907 0 0 1-.748-.68l-.042.115.042-.115c.2-.507.562-.94 1.032-1.235H6.93c.09-.043.18-.082.274-.115.046 0-.202-.11-.423-.09a1.166 1.166 0 0 0-.393.09c.052-.045.207-.1.17-.1-.28.026-.554.097-.81.21a.15.15 0 0 1 0-.07 1.241 1.241 0 0 0-.516.375.625.625 0 0 0 0-.085c-.09.066-.17.141-.242.225a3.35 3.35 0 0 0-1.822-.15 1.518 1.518 0 0 1-.325-.35 1.656 1.656 0 0 1-.124-.195l-.093-.17s0 .055-.03.04a2.1 2.1 0 0 1-.145-.845.95.95 0 0 0-.372.47c-.03.07-.052.105-.072.145-.02.04 0-.105 0-.1a.869.869 0 0 0-.13.185 1.163 1.163 0 0 0-.077.19V2.58a4.65 4.65 0 0 0-.418 1.5c-.008.09-.008.18 0 .27a3.33 3.33 0 0 0-.423.55 7.69 7.69 0 0 0-.898 2.13 5.14 5.14 0 0 1 .454-.815A7.293 7.293 0 0 0 0 8.97c.061-.276.139-.548.232-.815A6.739 6.739 0 0 0 .878 11.4a7.623 7.623 0 0 0 3.096 3.385 6.836 6.836 0 0 0 1.796.835l.258.085-.077-.035a8.37 8.37 0 0 0 2.307.33c2.792 0 3.715-1.03 3.798-1.135.138-.12.25-.267.33-.43l.165-.07h.036l.062-.03a5.88 5.88 0 0 0 1.177-.715 2.755 2.755 0 0 0 1.1-1.555.942.942 0 0 0 0-.715l.087-.14c.6-.937.94-2.008.986-3.11v-.09a3.761 3.761 0 0 0-.047-.695Z"/>
</svg>
